bootstrap/camera-video-off.svg

<svg xmlns="http://www.w3.org/2000/svg" width="16" height="16" fill="currentColor" class="bi bi-camera-video-off" viewBox="0 0 16 16">
  <path fill-rule="evenodd" d="M10.961 12.365a2 2 0 0 0 .522-1.103l3.11 1.382A1 1 0 0 0 16 11.731V4.269a1 1 0 0 0-1.406-.913l-3.111 1.382A2 2 0 0 0 9.5 3H4.272l.714 1H9.5a1 1 0 0 1 1 1v6a1 1 0 0 1-.144.518zM1.428 4.18A1 1 0 0 0 1 5v6a1 1 0 0 0 1 1h5.014l.714 1H2a2 2 0 0 1-2-2V5c0-.675.334-1.272.847-1.634zM15 11.73l-3.5-1.555v-4.35L15 4.269zm-4.407 3.56-10-14 .814-.58 10 14z"/>
</svg>

<svg viewBox="0 0 16 16" xmlns="http://www.w3.org/2000/svg"><path fill-rule="evenodd" d="M10.961 12.36h-.001c.28-.31.46-.69.52-1.11l3.11 1.38v0c.5.22 1.09-.01 1.32-.51 .05-.13.08-.27.08-.41V4.24v0c-.01-.56-.45-1-1.01-1 -.14 0-.28.02-.41.08L11.45 4.7v0c-.14-1-.98-1.74-1.99-1.738H4.23l.71 1h4.51v0c.55 0 1 .44 1 1v6 0c0 .18-.05.36-.15.51l.6.84ZM1.42 4.17h0c-.27.18-.43.49-.43.82v6 0c0 .55.44 1 1 1H7l.71 1H1.98v0c-1.11 0-2-.9-2-2v-6c0-.68.33-1.28.84-1.64l.58.81Zm13.57 7.55l-3.5-1.56V5.81l3.5-1.56v7.462Zm-4.407 3.56l-10-14L1.39.7l10 14 -.82.58Z"/></svg>
